packages/ffe-icons/icons/filled/lg/free_breakfast.svg

<svg xmlns="http://www.w3.org/2000/svg" height="40" viewBox="0 -960 960 960" width="40"><path d="M205.129-140.001q-10.698 0-17.913-7.25-7.215-7.249-7.215-17.999t7.215-17.878q7.215-7.128 17.913-7.128h549.742q10.698 0 17.913 7.249 7.215 7.25 7.215 18t-7.215 17.878q-7.215 7.128-17.913 7.128H205.129Zm113.102-145.641q-57.711 0-97.97-39.538-40.26-39.538-40.26-96.358v-347.436q0-21.089 14.968-36.057 14.968-14.968 36.057-14.968h564.87q26.289 0 45.196 18.43 18.907 18.429 18.907 44.519v124.101q0 26.09-18.907 44.519t-45.196 18.429H708.05v148.463q0 56.82-40.259 96.358-40.259 39.538-97.97 39.538h-251.59ZM708.05-620.256h87.846q5.77 0 9.809-3.654t4.039-9.039V-757.05q0-5.385-4.039-9.04-4.039-3.654-9.809-3.654H708.05v149.488Z"/></svg>

<svg xmlns="http://www.w3.org/2000/svg" viewBox="0 -960 960 960" width="32" height="32"><path d="M205.13-140q-10.7 0-17.91-7.25-7.22-7.25-7.22-18t7.22-17.88q7.21-7.13 17.91-7.13h549.74q10.7 0 17.91 7.25 7.22 7.25 7.22 18t-7.22 17.88q-7.21 7.13-17.91 7.13H205.13Zm113.1-145.64q-57.71 0-97.97-39.54T180-421.54v-347.43q0-21.09 14.97-36.06Q209.94-820 231.03-820H795.9q26.28 0 45.19 18.43Q860-783.14 860-757.05v124.1q0 26.09-18.91 44.52Q822.18-570 795.9-570h-87.85v148.46q0 56.82-40.26 96.36t-97.97 39.54H318.23Zm389.82-334.62h87.85q5.77 0 9.8-3.65 4.04-3.65 4.04-9.04v-124.1q0-5.39-4.04-9.04-4.03-3.65-9.8-3.65h-87.85v149.48Z"/></svg>
